src/24/actions/tab-detach.svg

<svg xmlns="http://www.w3.org/2000/svg" viewBox="0 0 24 24"><path d="M4 4v16h16V7H10V4H4zm7 0v2h8V4h-8zM5 5h4v3h10v11H5V5z" fill="currentColor" color="#5d656b"/></svg>

<svg xmlns="http://www.w3.org/2000/svg" viewBox="0 0 24 24">
  <defs id="defs3051">
    <style type="text/css" id="current-color-scheme">
      .ColorScheme-Text {
        color:#5d656b;
      }
      </style>
  </defs>
 <path style="fill:currentColor;fill-opacity:1;stroke:none" 
     d="M 4 4 L 4 5 L 4 19 L 4 20 L 20 20 L 20 19 L 20 7 L 19 7 L 17 7 L 10 7 L 10 6 L 10 4 L 9 4 L 5 4 L 4 4 z M 11 4 L 11 6 L 19 6 L 19 4 L 11 4 z M 5 5 L 9 5 L 9 8 L 17 8 L 19 8 L 19 19 L 5 19 L 5 5 z "
     class="ColorScheme-Text"
     />
</svg>
